static/images/mobile/copyright/wikipedia-wordmark-az.svg

<?xml version="1.0" encoding="UTF-8"?>
<svg width="120px" height="19px" viewBox="0 0 120 19" version="1.1" xmlns="http://www.w3.org/2000/svg" xmlns:xlink="http://www.w3.org/1999/xlink">
    <title>wikipedia-wordmark-az</title>
    <g id="Page-1" stroke="none" stroke-width="1" fill="none" fill-rule="evenodd">
        <path d="M13.1773722,2.53201572 L8.93011996,14.4569929 L8.82121607,14.4569929 L4.51951193,2.3414339 C4.22002621,1.52465463 4.437834,1.30684682 5.71745485,1.14349097 L6.18029644,1.08903902 C6.31642631,1.06181304 6.39810424,1.00736109 6.39810424,0.871231216 L6.39810424,0.353937682 L6.3436523,0.29948573 C6.3436523,0.29948573 4.19279922,0.353937682 3.23989108,0.353937682 C2.17807904,0.353937682 0.054451951,0.29948573 0.054451951,0.29948573 L0,0.353937682 L0,0.871231216 C0,1.00736109 0.108904003,1.08903902 0.217807804,1.08903902 C1.63355712,1.22516889 1.87859271,1.63355853 2.28698194,2.7770495 L7.56882119,17.6152061 C7.70495107,18.0235958 7.92275887,18.2414035 8.19501862,18.2414035 C8.49450436,18.2414035 8.68508618,18.0235958 8.84844204,17.6152061 L14.3753151,2.8859534 C14.7564787,1.90581828 15.2193213,1.17071695 16.716749,1.08903902 C16.8528788,1.08903902 16.9345568,1.00736109 16.9345568,0.871231216 L16.9345568,0.353937682 L16.8801048,0.29948573 C16.8801048,0.29948573 15.3282232,0.353937682 14.3753151,0.353937682 C13.3135031,0.353937682 11.3804577,0.29948573 11.3804577,0.29948573 L11.3260058,0.353937682 L11.3260058,0.871231216 C11.3260058,1.00736109 11.4349097,1.08903902 11.5438137,1.08903902 L11.9794292,1.11626499 C12.9867893,1.17071695 13.5585358,1.49742866 13.1773722,2.53201572 M18.929648,1.66078451 C18.929648,2.36865987 19.5013935,2.94040536 20.2364949,2.94040536 C20.9443692,2.94040536 21.5433416,2.36865987 21.5433416,1.66078451 C21.5433416,0.925683167 20.9443692,0.353937682 20.2364949,0.353937682 C19.5013935,0.353937682 18.929648,0.925683167 18.929648,1.66078451 M21.3799858,7.02430168 C21.3799858,6.47978217 21.6794716,6.26197437 22.5234768,6.18029644 L23.0952222,6.12584449 C23.2041262,6.12584449 23.2585782,6.07139253 23.2585782,5.98971461 L23.2585782,5.39074315 L23.2313521,5.3362912 C23.2313521,5.3362912 21.1349511,5.39074315 20.3998507,5.39074315 C19.5558454,5.39074315 17.4049934,5.3362912 17.4049934,5.3362912 L17.3777674,5.39074315 L17.3777674,6.01694059 C17.3777674,6.09861852 17.4594453,6.12584449 17.5683492,6.12584449 L18.1128687,6.18029644 C18.956873,6.26197437 19.2835857,6.42533022 19.2835857,7.02430168 L19.2835857,16.0905515 C19.2835857,16.6078451 19.0113249,17.0434607 18.1128687,17.1251386 L17.5683492,17.1795906 C17.4594453,17.1795906 17.3777674,17.2340425 17.3777674,17.3429464 L17.3777674,17.9146919 L17.4322194,17.9691438 C17.4322194,17.9691438 19.5558454,17.9146919 20.3181727,17.9146919 C21.162177,17.9146919 23.2313521,17.9691438 23.2313521,17.9691438 L23.2585782,17.9146919 L23.2585782,17.3429464 C23.2585782,17.2340425 23.1769002,17.1795906 23.0952222,17.1795906 L22.5234768,17.1251386 C21.6522455,17.0434607 21.3799858,16.689523 21.3799858,16.0905515 L21.3799858,7.02430168 M28.5807683,12.0611072 C29.1797388,12.0611072 29.6153553,12.197237 30.0237449,12.7417565 L33.0458283,16.4989411 C33.426991,16.9345568 33.4542178,17.2340425 33.4542178,17.5879802 L33.4542178,17.9146919 L33.4814439,17.9419179 C33.4814439,17.9419179 34.461579,17.9146919 35.1422283,17.9146919 C35.9045547,17.9146919 37.3475324,17.9419179 37.3475324,17.9419179 L37.4292103,17.9146919 L37.4292103,17.3429464 C37.4292103,17.2612684 37.3203064,17.2068165 37.2386284,17.1795906 L37.1024986,17.1523645 C36.5579791,17.0434607 35.9045547,16.8801048 35.577844,16.4989411 L31.4667217,11.5438137 C31.3305918,11.3804577 31.2216879,11.2443279 31.2216879,11.0809721 C31.2216879,10.8631642 31.3850437,10.5636785 31.8478853,10.0736109 L34.1893192,7.37823936 C35.1694534,6.26197437 35.9045567,6.20752241 36.9663687,6.12584449 C37.1024986,6.12584449 37.1841765,6.07139253 37.1841765,5.98971461 L37.1841765,5.36351717 L37.1024986,5.3362912 C37.1024986,5.3362912 35.9045547,5.39074315 35.1966804,5.39074315 C34.407127,5.39074315 32.201823,5.3362912 32.201823,5.3362912 L32.1745971,5.36351717 L32.1745971,5.98971461 C32.1745971,6.07139253 32.229049,6.09861852 32.3379529,6.12584449 C32.8824714,6.20752241 33.1275062,6.4525562 33.1275062,6.67036399 C33.1275062,7.18765754 32.2834999,8.19501862 31.1944619,9.39296154 C29.99652,10.6725824 29.4792244,11.135424 28.5807683,11.135424 L28.5807683,7.02430168 C28.5807683,6.47978217 28.880254,6.3436523 29.7242593,6.18029644 L30.0237449,6.12584449 C30.1326489,6.09861852 30.1871009,6.07139253 30.1871009,5.98971461 L30.1871009,5.39074315 L30.1598748,5.3362912 C30.1598748,5.3362912 28.4446374,5.39074315 27.6823111,5.39074315 C26.8383058,5.39074315 24.6057759,5.3362912 24.6057759,5.3362912 L24.5785499,5.39074315 L24.5785499,6.01694059 C24.5785499,6.09861852 24.6602278,6.12584449 24.7691317,6.12584449 L25.3136512,6.18029644 C26.1848814,6.26197437 26.4843681,6.42533022 26.4843681,7.02430168 L26.4843681,16.0905515 C26.4843681,16.6078451 26.1304295,17.0434607 25.3136512,17.1251386 L24.7691317,17.1795906 C24.6602278,17.1795906 24.5785499,17.2340425 24.5785499,17.3429464 L24.5785499,17.9146919 L24.6330018,17.9691438 C24.6330018,17.9691438 26.8655318,17.9146919 27.6278592,17.9146919 C28.4446374,17.9146919 30.1598748,17.9691438 30.1598748,17.9691438 L30.1871009,17.9146919 L30.1871009,17.3429464 C30.1871009,17.2340425 30.1054229,17.2068165 30.0237449,17.1795906 L29.7242593,17.1251386 C28.9347059,16.9890087 28.5807683,16.689523 28.5807683,16.0905515 L28.5807683,12.0611072 M39.9781777,1.66078451 C39.9781777,2.36865987 40.5499232,2.94040536 41.2850246,2.94040536 C41.9928989,2.94040536 42.5918714,2.36865987 42.5918714,1.66078451 C42.5918714,0.925683167 41.9928989,0.353937682 41.2850246,0.353937682 C40.5499232,0.353937682 39.9781777,0.925683167 39.9781777,1.66078451 M42.4285155,7.02430168 C42.4285155,6.47978217 42.7280013,6.26197437 43.5720065,6.18029644 L44.143752,6.12584449 C44.2526558,6.12584449 44.3071079,6.07139253 44.3071079,5.98971461 L44.3071079,5.39074315 L44.2798819,5.3362912 C44.2798819,5.3362912 42.1834808,5.39074315 41.4483804,5.39074315 C40.6043752,5.39074315 38.4535231,5.3362912 38.4535231,5.3362912 L38.4262972,5.39074315 L38.4262972,6.01694059 C38.4262972,6.09861852 38.507975,6.12584449 38.6168789,6.12584449 L39.1613985,6.18029644 C40.0054027,6.26197437 40.3321154,6.42533022 40.3321154,7.02430168 L40.3321154,16.0905515 C40.3321154,16.6078451 40.0598546,17.0434607 39.1613985,17.1251386 L38.6168789,17.1795906 C38.507975,17.1795906 38.4262972,17.2340425 38.4262972,17.3429464 L38.4262972,17.9146919 L38.4807491,17.9691438 C38.4807491,17.9691438 40.6043752,17.9146919 41.3667025,17.9146919 C42.2107067,17.9146919 44.2798819,17.9691438 44.2798819,17.9691438 L44.3071079,17.9146919 L44.3071079,17.3429464 C44.3071079,17.2340425 44.2254299,17.1795906 44.143752,17.1795906 L43.5720065,17.1251386 C42.7007753,17.0434607 42.4285155,16.689523 42.4285155,16.0905515 L42.4285155,7.02430168 M49.5748481,7.07875363 C49.5748481,6.37087827 49.9015608,6.12584449 51.2084066,6.12584449 C52.7058332,6.12584449 53.7676483,6.64313802 53.7676483,8.98457192 C53.7676483,11.0809721 52.978093,12.0611072 51.3445365,12.0611072 C50.800017,12.0611072 50.1193665,12.0338812 49.5748481,11.8160734 L49.5748481,7.07875363 M47.4784479,16.2266814 C47.4784479,16.7439749 47.2061872,16.9890087 46.3621829,17.0979126 L45.7904375,17.1795906 C45.6815336,17.2068165 45.6270816,17.2340425 45.6270816,17.3429464 L45.6270816,17.9146919 L45.6543075,17.9691438 C45.6543075,17.9691438 47.6962557,17.9146919 48.458583,17.9146919 C49.3025873,17.9146919 51.4806663,17.9691438 51.4806663,17.9691438 L51.5078923,17.9146919 L51.5078923,17.3429464 C51.5078923,17.2340425 51.4262144,17.2068165 51.3173105,17.1795906 L50.7727909,17.0979126 C49.9015597,16.9617827 49.5748481,16.8256529 49.5748481,16.2266814 L49.5748481,12.5784007 C50.0649146,12.7962085 50.6094351,12.8506604 51.2900846,12.8506604 C55.156169,12.8506604 55.9457264,10.2914187 55.9457264,8.65786021 C55.9457264,7.24210948 55.237847,5.3362912 51.3717624,5.3362912 C50.3644024,5.3362912 49.2753614,5.39074315 48.513035,5.39074315 C47.7234817,5.39074315 46.1171482,5.3362912 45.7087596,5.3362912 L45.6543075,5.36351717 L45.6543075,5.98971461 C45.6543075,6.04416656 45.6815336,6.12584449 45.8448894,6.12584449 C47.1245082,6.20752241 47.4784479,6.23474839 47.4784479,7.07875363 L47.4784479,16.2266814 M64.5690641,17.9146919 C65.3858423,17.9146919 66.9921758,17.9691438 66.9921758,17.9691438 L67.0466278,17.9146919 L67.5911473,14.7837047 L66.9104979,14.7020267 C66.5837862,16.1177775 65.8214569,16.9890087 64.4329341,16.9890087 L61.8464664,16.9890087 C61.3563989,16.9890087 61.0569132,16.4717152 61.0569132,15.9544217 L61.0569132,11.7888474 L63.0988614,11.7888474 C63.8067357,11.7888474 64.0517704,12.0883331 64.1606744,12.6328526 L64.2968042,13.2318241 C64.2968042,13.313502 64.3512562,13.3679539 64.4873861,13.3679539 L64.9502277,13.3679539 L65.0046796,13.313502 C64.9502277,12.6873046 64.8413238,12.1155591 64.8413238,11.4349097 C64.8413238,10.7814863 64.9502277,10.019159 65.0046796,9.42018753 C65.0046796,9.36573557 65.0046796,9.3385096 64.9502277,9.3385096 L64.4873861,9.3385096 C64.3784822,9.3385096 64.3240303,9.39296154 64.3240303,9.47463947 L64.1606744,10.046385 C64.0517704,10.5909045 63.8611876,10.9176161 63.0988614,10.9176161 L61.0569132,10.9176161 L61.0569132,6.96984973 C61.0569132,6.50700815 61.3291729,6.31642631 61.8464664,6.31642631 L64.0245445,6.31642631 C65.7670049,6.31642631 66.2843005,7.75940302 66.5837862,8.76676411 L67.2644356,8.65786021 C67.0738537,7.62327314 66.883272,6.56146009 66.8560459,5.39074315 L66.801594,5.3362912 C66.801594,5.3362912 64.8685487,5.39074315 64.0517704,5.39074315 L60.0495521,5.39074315 C59.2327728,5.39074315 57.1091467,5.3362912 57.1091467,5.3362912 L57.0819207,5.39074315 L57.0819207,6.01694059 C57.0819207,6.04416656 57.0819207,6.09861852 57.2452766,6.12584449 L57.8714741,6.18029644 C58.6338003,6.23474839 58.9605131,6.3436523 58.9605131,6.96984973 L58.9605131,15.9544217 C58.9605131,16.4989411 58.7154783,17.0434607 57.8714741,17.1251386 L57.2452766,17.1795906 C57.1091467,17.1795906 57.0819207,17.2612684 57.0819207,17.3157204 L57.0819207,17.9146919 L57.1091467,17.9691438 C57.1091467,17.9691438 58.987739,17.9146919 59.8045183,17.9146919 L64.5690641,17.9146919 M69.0153411,17.3429464 L69.0153411,17.9146919 L69.042567,17.9691438 C69.042567,17.9691438 71.1117422,17.9146919 71.9285205,17.9146919 C72.7725247,17.9146919 73.7254369,17.9691438 75.9035129,17.9691438 C78.9255931,17.9691438 82.3016172,16.5533931 82.3016172,11.7888474 C82.3016172,8.16779265 80.0690831,5.3362912 75.5223492,5.3362912 C74.8144749,5.3362912 72.445814,5.39074315 71.9285205,5.39074315 C71.4384539,5.39074315 69.042567,5.3362912 69.042567,5.3362912 L69.0153411,5.39074315 L69.0153411,5.98971461 C69.0153411,6.07139253 69.0970191,6.12584449 69.205923,6.12584449 L69.8048943,6.18029644 C70.7033505,6.26197437 70.8939334,6.26197437 70.8939334,6.96984973 L70.8939334,15.9544217 C70.8939334,16.7984269 70.6216727,17.0434607 69.8048943,17.1251386 L69.1786969,17.1795906 C69.069793,17.1795906 69.0153411,17.2612684 69.0153411,17.3429464 M72.9903336,15.9544217 L72.9903336,6.96984973 C72.9903336,6.28920034 73.6709839,6.12584449 74.732796,6.12584449 C79.3067558,6.12584449 79.9329572,9.42018753 79.9329572,12.2516889 C79.9329572,16.0633256 78.2449438,17.1795906 75.2500895,17.1795906 C73.1809173,17.1795906 72.9903336,16.716749 72.9903336,15.9544217 M85.4253078,1.66078451 C85.4253078,2.36865987 85.9970543,2.94040536 86.7321546,2.94040536 C87.4400289,2.94040536 88.0390014,2.36865987 88.0390014,1.66078451 C88.0390014,0.925683167 87.4400289,0.353937682 86.7321546,0.353937682 C85.9970543,0.353937682 85.4253078,0.925683167 85.4253078,1.66078451 M87.8756456,7.02430168 C87.8756456,6.47978217 88.1751323,6.26197437 89.0191365,6.18029644 L89.590882,6.12584449 C89.699786,6.12584449 89.7542379,6.07139253 89.7542379,5.98971461 L89.7542379,5.39074315 L89.7270119,5.3362912 C89.7270119,5.3362912 87.6306108,5.39074315 86.8955105,5.39074315 C86.0515062,5.39074315 83.9006531,5.3362912 83.9006531,5.3362912 L83.8734272,5.39074315 L83.8734272,6.01694059 C83.8734272,6.09861852 83.955105,6.12584449 84.0640089,6.12584449 L84.6085285,6.18029644 C85.4525327,6.26197437 85.7792454,6.42533022 85.7792454,7.02430168 L85.7792454,16.0905515 C85.7792454,16.6078451 85.5069847,17.0434607 84.6085285,17.1251386 L84.0640089,17.1795906 C83.955105,17.1795906 83.8734272,17.2340425 83.8734272,17.3429464 L83.8734272,17.9146919 L83.9278791,17.9691438 C83.9278791,17.9691438 86.0515062,17.9146919 86.8138325,17.9146919 C87.6578367,17.9146919 89.7270119,17.9691438 89.7270119,17.9691438 L89.7542379,17.9146919 L89.7542379,17.3429464 C89.7542379,17.2340425 89.6725599,17.1795906 89.590882,17.1795906 L89.0191365,17.1251386 C88.1479063,17.0434607 87.8756456,16.689523 87.8756456,16.0905515 L87.8756456,7.02430168 M102.890289,5.3362912 L102.917515,5.39074315 L102.917515,5.98971461 C102.917515,6.04416656 102.917515,6.09861852 102.726933,6.12584449 L102.726933,6.12584449 L102.264092,6.18029644 C101.39286,6.28920034 101.25673,6.4525562 100.848341,7.18765754 L100.848341,7.18765754 L97.8534835,12.4694968 L97.8534835,16.2539074 C97.8534835,16.8528788 98.1529693,17.0434607 98.9969746,17.1251386 L98.9969746,17.1251386 L99.56872,17.1795906 C99.6776239,17.1795906 99.7593019,17.2612684 99.7593019,17.3429464 L99.7593019,17.3429464 L99.7593019,17.9146919 L99.7048499,17.9691438 C99.7048499,17.9691438 98.982349,17.9501307 98.2170685,17.9345744 L97.8632996,17.9277219 C97.4528004,17.9202046 97.0602176,17.9146919 96.7916706,17.9146919 C96.0293432,17.9146919 93.9057171,17.9691438 93.9057171,17.9691438 L93.9057171,17.9691438 L93.8512652,17.9146919 L93.8512652,17.3429464 C93.8512652,17.2612684 93.9329431,17.1795906 94.041847,17.1795906 L94.041847,17.1795906 L94.5863666,17.1251386 C95.4303717,17.0434607 95.7570834,16.7984269 95.7570834,16.2539074 L95.7570834,16.2539074 L95.7570834,12.5784007 L92.3266105,6.94262376 C91.9726728,6.37087827 91.5370563,6.20752241 90.747504,6.12584449 C90.665826,6.12584449 90.5296961,6.09861852 90.5296961,5.98971461 L90.5296961,5.98971461 L90.5296961,5.39074315 L90.5841481,5.3362912 C90.8291819,5.3362912 92.5171924,5.39074315 92.8166781,5.39074315 L92.8585767,5.39049573 C93.2008668,5.38771804 95.2579405,5.36200462 95.5665017,5.3362912 L95.5665017,5.3362912 L95.5937276,5.36351717 L95.5937276,5.98971461 C95.5937276,6.04416656 95.5392756,6.12584449 95.4575978,6.12584449 L95.4575978,6.12584449 L94.8586263,6.18029644 C94.2052028,6.23474839 94.3141067,6.47978217 94.5863666,6.91539777 L94.5863666,6.91539777 L97.33619,11.4076837 L97.390642,11.4076837 L99.9226577,6.91539777 C100.276595,6.26197437 100.276595,6.23474839 99.623172,6.18029644 L99.623172,6.18029644 L98.9969746,6.12584449 C98.9152966,6.12584449 98.8880707,6.04416656 98.8880707,5.98971461 L98.8880707,5.98971461 L98.8880707,5.36351717 L98.9425226,5.3362912 C99.2420084,5.3362912 100.766663,5.39074315 101.038923,5.39074315 C101.229505,5.39074315 102.481899,5.36351717 102.890289,5.3362912 L102.890289,5.3362912 Z M111.097105,0 C111.478269,0 111.614399,0.272259755 111.832207,0.816779265 L111.832207,0.816779265 L117.413531,15.573258 C117.794695,16.635071 118.339215,17.0434607 119.428255,17.1523645 L119.428255,17.1523645 L119.727739,17.1795906 C119.863869,17.1795906 120,17.2612684 120,17.3973983 L120,17.3973983 L120,17.9146919 L119.918322,17.9691438 C119.918322,17.9691438 119.141583,17.9489689 118.294233,17.9331797 L117.746728,17.9238754 C117.384504,17.9183975 117.037104,17.9146919 116.760109,17.9146919 C115.8072,17.9146919 113.139054,17.9691438 113.139054,17.9691438 L113.139054,17.9691438 L113.111828,17.9146919 L113.111828,17.3973983 C113.111828,17.2612684 113.166279,17.1795906 113.30241,17.1795906 L113.30241,17.1795906 L114.064737,17.1251386 C115.099324,17.0434607 115.480487,16.716749 115.208228,15.9544217 L115.208228,15.9544217 L113.547443,11.3532318 L107.884441,11.3532318 C107.231017,11.3532318 107.067661,11.4621357 106.931531,11.8160734 L106.931531,11.8160734 L105.352425,15.7638398 C105.080165,16.4444892 105.434103,17.0434607 106.441464,17.1251386 L106.441464,17.1251386 L107.231017,17.1795906 C107.339921,17.1795906 107.448825,17.2612684 107.448825,17.3973983 L107.448825,17.3973983 L107.448825,17.9146919 L107.394372,17.9691438 C107.394372,17.9691438 106.591926,17.95442 105.7297,17.9402852 L105.330209,17.933859 C104.66633,17.9234042 104.034688,17.9146919 103.773318,17.9146919 C103.065443,17.9146919 101.32298,17.9691438 101.32298,17.9691438 L101.32298,17.9691438 L101.268528,17.9146919 L101.268528,17.3973983 C101.268528,17.2612684 101.350206,17.1795906 101.486336,17.1795906 C102.684279,17.0979126 103.364929,16.8801048 104.127256,15.1376424 L104.127256,15.1376424 L110.171422,0.980135118 C110.470908,0.272259755 110.688716,0 111.097105,0 Z M110.470908,2.94040536 L110.416457,2.94040536 L107.693858,9.85580313 C107.584955,10.1280629 107.775536,10.2097408 108.374508,10.2097408 L108.374508,10.2097408 L113.111828,10.2097408 L110.470908,2.94040536 Z" id="wikipedia-wordmark-az" fill="#000000" fill-rule="nonzero"></path>
    </g>
</svg>

<svg xmlns="http://www.w3.org/2000/svg" width="120" height="19"><path fill="#000" fill-rule="nonzero" d="M13.177 2.532 8.93 14.457h-.109L4.52 2.341c-.3-.816-.082-1.034 1.197-1.198l.463-.054c.136-.027.218-.082.218-.218V.354L6.344.299S4.193.354 3.24.354C2.178.354.054.299.054.299L0 .354V.87c0 .136.109.218.218.218 1.416.136 1.66.545 2.069 1.688l5.282 14.838c.136.409.354.626.626.626.3 0 .49-.217.653-.626l5.527-14.729c.381-.98.844-1.715 2.342-1.797.136 0 .218-.082.218-.218V.354L16.88.299s-1.552.055-2.505.055c-1.061 0-2.995-.055-2.995-.055l-.054.055V.87c0 .136.109.218.218.218l.435.027c1.008.055 1.58.381 1.198 1.416m5.753-.871c0 .708.571 1.28 1.306 1.28.708 0 1.307-.572 1.307-1.28 0-.735-.599-1.307-1.307-1.307A1.29 1.29 0 0 0 18.93 1.66m2.45 5.363c0-.544.3-.762 1.143-.844l.572-.054c.11 0 .164-.055.164-.136v-.6l-.028-.054s-2.096.055-2.831.055c-.844 0-2.995-.055-2.995-.055l-.027.055v.626c0 .082.081.109.19.109l.545.054c.844.082 1.17.245 1.17.844v9.067c0 .517-.272.952-1.17 1.034l-.545.055c-.109 0-.19.054-.19.163v.572l.054.054s2.124-.054 2.886-.054c.844 0 2.913.054 2.913.054l.028-.054v-.572c0-.109-.082-.163-.164-.163l-.572-.055c-.87-.082-1.143-.435-1.143-1.034V7.024m7.2 5.037c.6 0 1.035.136 1.444.68l3.022 3.758c.381.436.408.735.408 1.089v.327l.027.027s.98-.027 1.661-.027c.763 0 2.206.027 2.206.027l.081-.027v-.572c0-.082-.109-.136-.19-.163l-.137-.028c-.544-.109-1.197-.272-1.524-.653l-4.111-4.955c-.136-.164-.245-.3-.245-.463 0-.218.163-.517.626-1.007l2.341-2.696c.98-1.116 1.716-1.17 2.777-1.252.136 0 .218-.055.218-.136v-.626l-.082-.028s-1.197.055-1.905.055c-.79 0-2.995-.055-2.995-.055l-.027.028v.626c0 .081.054.109.163.136.544.082.79.327.79.544 0 .518-.845 1.525-1.934 2.723-1.197 1.28-1.715 1.742-2.613 1.742v-4.11c0-.545.3-.681 1.143-.845l.3-.054c.109-.027.163-.055.163-.136v-.6l-.027-.054s-1.715.055-2.478.055c-.844 0-3.076-.055-3.076-.055l-.027.055v.626c0 .082.081.109.19.109l.545.054c.87.082 1.17.245 1.17.844v9.067c0 .517-.354.952-1.17 1.034l-.545.055c-.109 0-.19.054-.19.163v.572l.054.054s2.233-.054 2.995-.054c.817 0 2.532.054 2.532.054l.027-.054v-.572c0-.109-.082-.136-.163-.163l-.3-.055c-.79-.136-1.143-.435-1.143-1.034v-4.03m11.397-10.4c0 .708.572 1.28 1.307 1.28.708 0 1.307-.572 1.307-1.28 0-.735-.6-1.307-1.307-1.307a1.29 1.29 0 0 0-1.307 1.307m2.45 5.363c0-.544.3-.762 1.144-.844l.572-.054c.109 0 .163-.055.163-.136v-.6l-.027-.054s-2.097.055-2.832.055c-.844 0-2.994-.055-2.994-.055l-.028.055v.626c0 .082.082.109.19.109l.545.054c.844.082 1.171.245 1.171.844v9.067c0 .517-.272.952-1.17 1.034l-.545.055c-.109 0-.19.054-.19.163v.572l.054.054s2.123-.054 2.886-.054c.844 0 2.913.054 2.913.054l.027-.054v-.572c0-.109-.082-.163-.163-.163l-.572-.055c-.871-.082-1.143-.435-1.143-1.034V7.024m7.146.055c0-.708.327-.953 1.633-.953 1.498 0 2.56.517 2.56 2.859 0 2.096-.79 3.076-2.423 3.076-.545 0-1.226-.027-1.77-.245V7.08m-2.097 9.148c0 .517-.272.762-1.116.87l-.572.083c-.108.027-.163.054-.163.163v.572l.027.054s2.042-.054 2.805-.054c.844 0 3.022.054 3.022.054l.027-.054v-.572c0-.109-.082-.136-.19-.163l-.545-.082c-.871-.136-1.198-.272-1.198-.871v-3.649c.49.218 1.034.273 1.715.273 3.866 0 4.656-2.56 4.656-4.193 0-1.416-.708-3.322-4.574-3.322-1.008 0-2.097.055-2.859.055-.79 0-2.396-.055-2.804-.055l-.055.028v.626c0 .054.028.136.19.136 1.28.082 1.634.109 1.634.953v9.148m17.091 1.688c.817 0 2.423.054 2.423.054l.055-.054.544-3.131-.68-.082c-.327 1.416-1.09 2.287-2.478 2.287h-2.587c-.49 0-.79-.517-.79-1.035V11.79H63.1c.708 0 .953.3 1.062.844l.136.599c0 .082.054.136.19.136h.463l.055-.054c-.055-.627-.164-1.198-.164-1.88 0-.653.11-1.415.164-2.014 0-.054 0-.081-.055-.081h-.463c-.109 0-.163.054-.163.136l-.163.571c-.11.545-.3.872-1.062.872h-2.042V6.97c0-.463.272-.654.79-.654h2.178c1.742 0 2.26 1.443 2.559 2.45l.68-.108c-.19-1.035-.38-2.097-.408-3.267l-.054-.055s-1.933.055-2.75.055H60.05c-.817 0-2.94-.055-2.94-.055l-.028.055v.626c0 .027 0 .082.163.109l.626.054c.763.055 1.09.164 1.09.79v8.984c0 .545-.246 1.09-1.09 1.171l-.626.055c-.136 0-.163.081-.163.136v.599l.027.054s1.879-.054 2.696-.054h4.764m4.446-.572v.572l.028.054s2.069-.054 2.886-.054c.844 0 1.796.054 3.975.054 3.022 0 6.398-1.416 6.398-6.18 0-3.621-2.233-6.453-6.78-6.453-.708 0-3.076.055-3.593.055-.49 0-2.886-.055-2.886-.055l-.028.055v.599c0 .081.082.136.19.136l.6.054c.898.082 1.089.082 1.089.79v8.984c0 .844-.272 1.09-1.09 1.171l-.625.055c-.11 0-.164.081-.164.163m3.975-1.389V6.97c0-.68.681-.844 1.743-.844 4.574 0 5.2 3.294 5.2 6.126 0 3.811-1.688 4.928-4.683 4.928-2.07 0-2.26-.463-2.26-1.226M85.425 1.661c0 .708.572 1.28 1.307 1.28.708 0 1.307-.572 1.307-1.28 0-.735-.599-1.307-1.307-1.307a1.29 1.29 0 0 0-1.307 1.307m2.45 5.363c0-.544.3-.762 1.144-.844l.572-.054c.109 0 .163-.055.163-.136v-.6l-.027-.054s-2.096.055-2.831.055c-.844 0-2.995-.055-2.995-.055l-.028.055v.626c0 .082.082.109.191.109l.545.054c.844.082 1.17.245 1.17.844v9.067c0 .517-.272.952-1.17 1.034l-.545.055c-.109 0-.19.054-.19.163v.572l.054.054s2.124-.054 2.886-.054c.844 0 2.913.054 2.913.054l.027-.054v-.572c0-.109-.081-.163-.163-.163l-.572-.055c-.871-.082-1.143-.435-1.143-1.034V7.024m15.014-1.688.028.055v.599c0 .054 0 .109-.191.136l-.463.054c-.871.11-1.007.273-1.416 1.008l-2.995 5.281v3.785c0 .599.3.79 1.144.871l.572.055c.109 0 .19.081.19.163v.572l-.054.054s-.723-.019-1.488-.034l-.354-.007c-.41-.008-.803-.013-1.071-.013-.763 0-2.886.054-2.886.054l-.055-.054v-.572c0-.082.082-.163.19-.163l.545-.055c.844-.082 1.171-.327 1.171-.871v-3.676l-3.43-5.635c-.354-.572-.79-.735-1.58-.817-.081 0-.217-.027-.217-.136v-.6l.054-.054c.245 0 1.933.055 2.233.055h.042c.342-.003 2.399-.029 2.708-.055l.027.028v.626c0 .054-.055.136-.136.136l-.6.054c-.653.055-.544.3-.272.735l2.75 4.493h.055l2.532-4.493c.354-.653.354-.68-.3-.735l-.626-.054c-.082 0-.109-.082-.109-.136v-.626l.055-.028c.299 0 1.824.055 2.096.055.19 0 1.443-.027 1.851-.055ZM111.097 0c.381 0 .517.272.735.817l5.582 14.756c.38 1.062.925 1.47 2.014 1.58l.3.027c.136 0 .272.081.272.217v.518l-.082.054s-.776-.02-1.624-.036l-.547-.01c-.362-.005-.71-.008-.987-.008-.953 0-3.62.054-3.62.054l-.028-.054v-.518c0-.136.054-.217.19-.217l.763-.055c1.034-.082 1.415-.408 1.143-1.17l-1.66-4.602h-5.664c-.653 0-.816.11-.952.463l-1.58 3.948c-.272.68.082 1.28 1.09 1.361l.789.055c.109 0 .218.081.218.217v.518l-.055.054s-.802-.015-1.664-.029l-.4-.006c-.664-.01-1.295-.02-1.557-.02-.708 0-2.45.055-2.45.055l-.054-.054v-.518c0-.136.081-.217.217-.217 1.198-.082 1.879-.3 2.641-2.042L110.171.98c.3-.708.518-.98.926-.98Zm-.626 2.94h-.055l-2.722 6.916c-.109.272.082.354.68.354h4.738l-2.641-7.27Z"/></svg>
